assets/svgs/misc-grey/MiscGrey84.svg

<svg width="39" height="38" viewBox="0 0 39 38" fill="none" xmlns="http://www.w3.org/2000/svg">
<path fill-rule="evenodd" clip-rule="evenodd" d="M15.85 27.44C19.165 27.44 22.172 26.11 24.37 23.95C24.373 23.95 24.374 23.94 24.377 23.94C24.382 23.94 24.389 23.93 24.394 23.93C26.634 21.72 28.027 18.65 28.027 15.27C28.027 8.55003 22.564 3.09003 15.85 3.09003C9.13599 3.09003 3.67299 8.55003 3.67299 15.27C3.67299 21.98 9.13599 27.44 15.85 27.44ZM15.85 0.0900269C24.218 0.0900269 31.027 6.90003 31.027 15.27C31.027 18.95 29.706 22.33 27.517 24.96L37.868 35.31C38.454 35.9 38.454 36.84 37.868 37.43C37.575 37.72 37.191 37.87 36.807 37.87C36.423 37.87 36.04 37.72 35.747 37.43L25.378 27.06C22.771 29.17 19.457 30.44 15.85 30.44C7.48099 30.44 0.672997 23.63 0.672997 15.27C0.672997 6.90003 7.48099 0.0900269 15.85 0.0900269Z" fill="#1A1919"/>
</svg>

<svg xmlns="http://www.w3.org/2000/svg" fill="none" viewBox="0 0 39 38"><path fill="#1A1919" fill-rule="evenodd" d="M15.85 27.44c3.315 0 6.322-1.33 8.52-3.49.003 0 .004-.01.007-.01.005 0 .012-.01.017-.01a12.143 12.143 0 003.633-8.66c0-6.72-5.463-12.18-12.177-12.18-6.714 0-12.177 5.46-12.177 12.18 0 6.71 5.463 12.17 12.177 12.17zm0-27.35c8.368 0 15.177 6.81 15.177 15.18 0 3.68-1.321 7.06-3.51 9.69l10.351 10.35a1.498 1.498 0 01-1.061 2.56c-.384 0-.767-.15-1.06-.44L25.378 27.06a15.098 15.098 0 01-9.528 3.38C7.481 30.44.673 23.63.673 15.27.673 6.9 7.481.09 15.85.09z" clip-rule="evenodd"/></svg>
